img/partners/img-12.svg

<svg width="198" height="47" viewBox="0 0 198 47" fill="none" xmlns="http://www.w3.org/2000/svg">
<g clip-path="url(#clip0_400_5367)">
<path d="M13.8291 12.9833C5.39856 16.2466 -0.0728867 24.1531 -0.000262329 33.0739L0.073593 47H18.0438C28.7664 47 38.0845 39.7466 40.5242 29.4471L47.4764 0L13.8291 12.9833ZM38.2322 20.7437L22.7029 26.7633L37.4924 24.0071L36.0879 30.0266C35.7186 31.4778 35.2004 32.8553 34.6083 34.1604L24.4766 35.9738H33.4981C30.0219 41.1229 24.1061 44.4599 17.5244 44.4599H2.73608L2.66222 32.9278C2.58837 25.6019 7.0997 19.0016 14.0507 16.3902L41.7822 5.72982L38.2322 20.7437Z" fill="#B98D51"/>
<path d="M55.5382 3.69922H76.8356L76.6141 4.93187H67.2221L63.3029 26.7634H60.7881L64.7074 4.93187H55.3154L55.537 3.69922H55.5382Z" fill="#B98D51"/>
<path d="M79.054 24.8052C82.8255 24.8052 84.6744 23.7174 86.8186 20.8887L78.9801 3.69922H81.7903L88.5936 18.351L99.3162 3.69922H100.796L87.8551 21.4694C84.971 25.4583 82.6052 26.9819 78.6108 26.9819L79.054 24.8064V24.8052Z" fill="#B98D51"/>
<path d="M97.3192 24.2983C97.3192 24.2983 97.9113 24.4431 98.3544 24.4431C100.499 24.4431 102.94 20.3094 104.936 12.113L107.007 3.62695H122.019L117.878 26.6923H115.363L119.283 4.86081H108.116L106.341 12.1142C103.9 22.1964 101.091 26.9108 96.9487 26.9108L97.318 24.2995L97.3192 24.2983Z" fill="#B98D51"/>
<path d="M124.385 26.7646L128.526 3.69922H149.38L145.239 26.7646H142.724L146.644 4.93307H130.893L126.973 26.7646H124.385Z" fill="#B98D51"/>
<path d="M149.455 26.7646L164.467 3.69922H165.947L172.603 26.7646H169.94L167.944 19.947H155.372L150.935 26.7646H149.455ZM156.037 18.8592H167.647L164.023 6.52912L156.037 18.8592Z" fill="#B98D51"/>
<path d="M180.883 3.69922H190.054C195.526 3.69922 198.632 6.45547 197.892 10.5168C197.152 14.6506 193.012 17.4068 187.613 17.4068H180.957L179.256 26.6909H176.741L180.882 3.69922H180.883ZM181.179 16.2466H187.613C191.606 16.2466 194.638 13.9987 195.23 10.5893C195.822 7.25229 193.602 4.93187 189.609 4.93187H183.101L181.179 16.2466Z" fill="#B98D51"/>
<path d="M54.3538 37.8608H55.3152L53.8356 45.9123L61.4526 37.8608H62.4139L60.7866 46.8552H59.8253L61.3049 38.8037L53.6879 46.8552H52.7266L54.3538 37.8608Z" fill="#B98D51"/>
<path d="M64.7808 46.8552L66.408 37.8608H67.3694L66.6296 41.9946H72.767L73.5068 37.8608H74.4681L72.8408 46.8552H71.8795L72.6931 42.5029H66.5557L65.7421 46.8552H64.7808Z" fill="#B98D51"/>
<path d="M77.6489 37.8608H85.9318L85.8579 38.3691H82.1603L80.6068 46.8552H79.7193L81.2728 38.3691H77.6489V37.8608Z" fill="#B98D51"/>
<path d="M89.1115 37.8608H95.9148L95.841 38.3691H89.999L89.3331 41.9958H94.4353L94.3614 42.5041H89.2592L88.5933 46.3481H94.4353L94.3614 46.8564H87.5581L89.1115 37.862V37.8608Z" fill="#B98D51"/>
<path d="M99.3158 37.8608H102.866C105.01 37.8608 106.193 38.9486 105.897 40.5447C105.602 42.1407 103.975 43.2285 101.904 43.2285H99.3158L98.6498 46.8552H97.6885L99.3158 37.8608ZM99.3896 42.7202H101.904C103.458 42.7202 104.641 41.8497 104.862 40.5447C105.084 39.2396 104.196 38.3691 102.718 38.3691H100.203L99.3896 42.7214V42.7202Z" fill="#B98D51"/>
<path d="M108.042 46.8552L109.669 37.8608H110.63L109.964 41.6324H112.553C114.697 41.6324 115.88 42.6478 115.585 44.2438C115.289 45.7674 113.662 46.8552 111.591 46.8552H108.042ZM111.591 46.3469C113.145 46.3469 114.328 45.4765 114.549 44.2438C114.771 43.0112 113.883 42.1407 112.331 42.1407H109.816L109.077 46.3469H111.591Z" fill="#B98D51"/>
<path d="M120.096 37.8608H126.9L126.826 38.3691H120.984L120.318 41.9958H125.42L125.346 42.5041H120.244L119.578 46.3481H125.42L125.346 46.8564H118.543L120.096 37.862V37.8608Z" fill="#B98D51"/>
<path d="M130.302 37.8608H133.852C135.996 37.8608 137.179 38.9486 136.883 40.5447C136.588 42.1407 134.961 43.2285 132.89 43.2285H130.302L129.636 46.8552H128.674L130.302 37.8608ZM130.449 42.7202H132.964C134.518 42.7202 135.7 41.8497 135.922 40.5447C136.144 39.2396 135.256 38.3691 133.778 38.3691H131.263L130.449 42.7214V42.7202Z" fill="#B98D51"/>
<path d="M144.278 46.8552L145.905 37.8608H151.969L151.895 38.3691H146.866L145.313 46.8552H144.278Z" fill="#B98D51"/>
<path d="M155.074 37.8608H158.624C160.768 37.8608 161.951 38.9486 161.656 40.5447C161.36 42.1407 159.733 43.2285 157.663 43.2285H155.074L154.408 46.8552H153.447L155.074 37.8608ZM155.148 42.7202H157.663C159.216 42.7202 160.399 41.8497 160.621 40.5447C160.842 39.2396 159.955 38.3691 158.476 38.3691H155.962L155.148 42.7214V42.7202Z" fill="#B98D51"/>
<path d="M164.392 46.0572C165.872 46.0572 166.61 45.6225 167.424 44.5336L164.392 37.8608H165.501L168.164 43.5907L172.305 37.8608H172.897L167.868 44.7509C166.759 46.3469 165.798 46.854 164.245 46.854L164.392 46.056V46.0572Z" fill="#B98D51"/>
<path d="M174.302 46.8552L175.93 37.8608H184.063L182.436 46.8552H181.475L183.028 38.3691H176.891L175.337 46.8552H174.302Z" fill="#B98D51"/>
<path d="M186.355 46.8552L187.983 37.8608H196.118L194.491 46.8552H193.529L195.083 38.3691H188.945L187.392 46.8552H186.357H186.355Z" fill="#B98D51"/>
</g>
<defs>
<clipPath id="clip0_400_5367">
<rect width="198" height="47" fill="white"/>
</clipPath>
</defs>
</svg>

<svg width="198" height="47" fill="none" xmlns="http://www.w3.org/2000/svg"><g clip-path="url(#clip0_400_5367)" fill="#B98D51"><path d="M13.83 12.983C5.398 16.247-.074 24.153 0 33.073L.074 47h17.97c10.722 0 20.04-7.253 22.48-17.553L47.476 0 13.83 12.983zm24.402 7.76l-15.53 6.02 14.79-2.756-1.404 6.02a24.956 24.956 0 01-1.48 4.133l-10.131 1.814h9.021a19.286 19.286 0 01-15.974 8.486H2.736l-.074-11.532C2.588 25.602 7.1 19.002 14.051 16.39L41.782 5.73l-3.55 15.014zM55.538 3.7h21.298l-.222 1.232h-9.392l-3.92 21.831h-2.514l3.92-21.831h-9.393l.222-1.233h.001zm23.516 21.105c3.772 0 5.62-1.088 7.765-3.916L78.98 3.699h2.81l6.804 14.652L99.316 3.699h1.48l-12.94 17.77c-2.885 3.99-5.25 5.513-9.245 5.513l.443-2.176zm18.266-.507s.591.145 1.034.145c2.145 0 4.586-4.134 6.582-12.33l2.071-8.486h15.012l-4.141 23.065h-2.515l3.92-21.831h-11.167l-1.775 7.253c-2.441 10.082-5.25 14.797-9.392 14.797l.369-2.612h.001zm27.065 2.467l4.141-23.066h20.854l-4.141 23.066h-2.515l3.92-21.832h-15.751l-3.92 21.832h-2.588zm25.07 0l15.012-23.066h1.48l6.656 23.066h-2.663l-1.996-6.818h-12.572l-4.437 6.818h-1.48zm6.582-7.906h11.61l-3.624-12.33-7.986 12.33zM180.883 3.7h9.171c5.472 0 8.578 2.755 7.838 6.817-.74 4.134-4.88 6.89-10.279 6.89h-6.656l-1.701 9.284h-2.515l4.141-22.992h.001zm.296 12.547h6.434c3.993 0 7.025-2.248 7.617-5.658.592-3.337-1.628-5.657-5.621-5.657h-6.508l-1.922 11.315zM54.354 37.86h.961l-1.48 8.052 7.618-8.051h.96l-1.626 8.994h-.962l1.48-8.051-7.617 8.051h-.961l1.627-8.994zm10.426 8.995l1.628-8.994h.961l-.74 4.134h6.138l.74-4.134h.961l-1.627 8.994h-.962l.814-4.352h-6.137l-.814 4.352h-.961zm12.869-8.995h8.283l-.074.51H82.16l-1.553 8.485h-.888l1.554-8.486h-3.624v-.508zm11.463 0h6.803l-.074.51h-5.842l-.666 3.626h5.102l-.074.508H89.26l-.666 3.844h5.842l-.074.508h-6.803l1.553-8.994v-.001zm10.204 0h3.55c2.144 0 3.327 1.089 3.031 2.685-.295 1.596-1.922 2.683-3.993 2.683h-2.588l-.666 3.627h-.962l1.628-8.994zm.074 4.86h2.514c1.554 0 2.737-.87 2.958-2.175.222-1.305-.666-2.176-2.144-2.176h-2.515l-.813 4.352zm8.652 4.135l1.627-8.994h.961l-.666 3.771h2.589c2.144 0 3.327 1.016 3.032 2.612-.296 1.523-1.923 2.611-3.994 2.611h-3.549zm3.549-.508c1.554 0 2.737-.87 2.958-2.103.222-1.233-.666-2.103-2.218-2.103h-2.515l-.739 4.206h2.514zm8.505-8.487h6.804l-.074.51h-5.842l-.666 3.626h5.102l-.074.508h-5.102l-.666 3.844h5.842l-.074.508h-6.803l1.553-8.994v-.001zm10.206 0h3.55c2.144 0 3.327 1.089 3.031 2.685-.295 1.596-1.922 2.683-3.993 2.683h-2.588l-.666 3.627h-.962l1.628-8.994zm.147 4.86h2.515c1.554 0 2.736-.87 2.958-2.175.222-1.305-.666-2.176-2.144-2.176h-2.515l-.814 4.352zm13.829 4.135l1.627-8.994h6.064l-.074.508h-5.029l-1.553 8.486h-1.035zm10.796-8.995h3.55c2.144 0 3.327 1.089 3.032 2.685-.296 1.596-1.923 2.683-3.993 2.683h-2.589l-.666 3.627h-.961l1.627-8.994zm.074 4.86h2.515c1.553 0 2.736-.87 2.958-2.175.221-1.305-.666-2.176-2.145-2.176h-2.514l-.814 4.352zm9.244 3.337c1.48 0 2.218-.434 3.032-1.523l-3.032-6.673h1.109l2.663 5.73 4.141-5.73h.592l-5.029 6.89c-1.109 1.596-2.07 2.103-3.623 2.103l.147-.798v.001zm9.91.798l1.628-8.994h8.133l-1.627 8.994h-.961l1.553-8.486h-6.137l-1.554 8.486h-1.035zm12.053 0l1.628-8.994h8.135l-1.627 8.994h-.962l1.554-8.486h-6.138l-1.553 8.486h-1.037z"/></g><defs><clipPath id="clip0_400_5367"><path fill="#fff" d="M0 0h198v47H0z"/></clipPath></defs></svg>
